X:037
T: Downshire March (The)
N: O'Farrell's Pocket Companion v.1 (Sky ed. p.33-34)
N: "Irish"
M: 2/4
L: 1/8
Q: 180
R: march
K: D
A|: FDDD|DFAd|cAAA|Aceg|
fd d/e/d/c/|Bggf|e/f/g/f/ ed|c/d/e/d/ c/B/A/G/|
FDDD|DFAd|cAAA|A/B/c/d/ e/f/g/a/|
fd f/e/d/c/|Bggf|e/f/g/e/ dc|d2d2 :|
f>gff|ff a/f/e/d/|e>f ee|ee a/e/d/c/|
ff/e/ d/c/B/A/|^G/A/B/c/ B>e/c//|d/e/c/e/ B/e/A/e/|A/e/A/e/ B/e/c/e/|
d/e/c/e/ B/e/A/e/|A/e/A/e/ B/e/c/e/|d/c/d/e/ f/e/f/g/|b/a/g/f/ f/e/d/c/|
d/c/d/e/ f/e/f/d/|a/^g/a/b/ a/f/e/d/|c/d/e/f/ e/d/c/B/|A/d/c/B/ A/G/F/E/:|
